!!!OTL: HAT EIER VATER VIEL HAFEN GEFAENGT
!!!ARE: Europa, Mitteleuropa, Deutschland
!!!SCT: B0730
!!!YEM: Copyright 1995, estate of Helmut Schaffrath.
**kern
*ICvox
*Ivox
*M4/4
*k[]
*C:
=1
{4G
4G
4G
8A
8B
=2
4c
4G
4E
4C}
=3
{2c
2d
=4
1e}
=5
{4G
4G
4G
8A
8B
=6
4c
4G
4E
4C}
=7
{2c
2d
=8
1e}
=9
{4e
4e
8e
8d
8c
8B
=10
4A
4A
2A}
=11
{4d
4d
8d
8c
8B
8A
=12
8G
8G
8G
8G
8A
8B
4c
=13
4c
4B
2c}
=14
{4e
4e
8e
8d
8c
8B
=15
4A
4A
2A}
=16
{4d
4d
8d
8c
8B
8A
=17
8G
8G
8G
8G
8A
8B
4c
=18
4c
4B
2c}
==
!!!AGN: ???
!!!ONB: ESAC (Essen Associative Code) Database: BOEHME
!!!AMT: simple quadruple
!!!AIN: vox
!!!EED: Helmut Schaffrath
!!!EEV: 1.0
*-
